assets/img/braze_icons/mark.svg

<svg fill="none" height="24" viewBox="0 0 24 24" width="24" xmlns="http://www.w3.org/2000/svg"><g fill="#801ed7"><path d="m12 9c-1.6569 0-3 1.3431-3 3s1.3431 3 3 3 3-1.3431 3-3-1.3431-3-3-3z"/><path clip-rule="evenodd" d="m13 2c0-.55228-.4477-1-1-1s-1 .44772-1 1v1.05493c-4.17162.46115-7.48392 3.77345-7.94507 7.94507h-1.05493c-.55228 0-1 .4477-1 1s.44772 1 1 1h1.05493c.46115 4.1716 3.77345 7.4839 7.94507 7.9451v1.0549c0 .5523.4477 1 1 1s1-.4477 1-1v-1.0549c4.1716-.4612 7.4839-3.7735 7.9451-7.9451h1.0549c.5523 0 1-.4477 1-1s-.4477-1-1-1h-1.0549c-.4612-4.17162-3.7735-7.48392-7.9451-7.94507zm-6 10c0-2.76142 2.23858-5 5-5 2.7614 0 5 2.23858 5 5 0 2.7614-2.2386 5-5 5-2.76142 0-5-2.2386-5-5z" fill-rule="evenodd"/></g></svg>

<svg width="24" height="24" viewBox="0 0 24 24" fill="none" xmlns="http://www.w3.org/2000/svg">
<path d="M12 9C10.3431 9 9 10.3431 9 12C9 13.6569 10.3431 15 12 15C13.6569 15 15 13.6569 15 12C15 10.3431 13.6569 9 12 9Z" fill="#801ED7"/>
<path fill-rule="evenodd" clip-rule="evenodd" d="M13 2C13 1.44772 12.5523 1 12 1C11.4477 1 11 1.44772 11 2V3.05493C6.82838 3.51608 3.51608 6.82838 3.05493 11H2C1.44772 11 1 11.4477 1 12C1 12.5523 1.44772 13 2 13H3.05493C3.51608 17.1716 6.82838 20.4839 11 20.9451V22C11 22.5523 11.4477 23 12 23C12.5523 23 13 22.5523 13 22V20.9451C17.1716 20.4839 20.4839 17.1716 20.9451 13H22C22.5523 13 23 12.5523 23 12C23 11.4477 22.5523 11 22 11H20.9451C20.4839 6.82838 17.1716 3.51608 13 3.05493V2ZM7 12C7 9.23858 9.23858 7 12 7C14.7614 7 17 9.23858 17 12C17 14.7614 14.7614 17 12 17C9.23858 17 7 14.7614 7 12Z" fill="#801ED7"/>
</svg>
